BOEHME
CUT[LEB WOHL DU THEURES LAND DAS MICH GEBOREN]
REG[Europa, Mitteleuropa, Deutschland]
TRD[]
FKT[]
SIG[B0095]
KEY[B0095   08  C 4/4]
MEL[331  5_.55565  5_4_0
    454  3_.33153  2__0
    222  5_.55567  766_.
    6+16  5_.554#76  5__0
    555  +2_.+2+1765  +1_5_0
    567  +1_.36531  2__0
    554  3_.34342  655_0
    +176  5_.56542  1__0
    554  3_.34342  655_0
    +176  5_.56542  1__0 //]
BEM[]
MEL_SEM[0 -4 7 0 0 0 2 -2 0 -2 0 2 -2 -1 0 0 -4 7 -3 -2 0 0 0 5 0 0 0 2 2 0 -2 0 0 3 -3 -2 0 0 -1 5 -2 -2 0 0 0 7 0 -2 -1 -2 -2 5 -5 0 2 2 1 -8 5 -2 -3 -4 2 5 0 -2 -1 0 1 -1 1 -3 7 -2 0 5 -1 -2 -2 0 2 -2 -2 -3 -2 7 0 -2 -1 0 1 -1 1 -3 7 -2 0 5 -1 -2 -2 0 2 -2 -2 -3 -2]
MEL_RAW[331  555565  540
    454  333153  20
    222  555567  766
    6+16  5554#76  50
    555  +2+2+1765  +150
    567  +136531  20
    554  334342  6550
    +176  556542  10
    554  334342  6550
    +176  556542  10]
NO_REP[3156540
    454315320
    25676
    6+1654#7650
    5+2+1765+150
    567+13653120
    5434342650
    +1765654210
    5434342650
    +1765654210]
RTM[xxx  x_.xxxxx  x_x_x
    xxx  x_.xxxxx  x__x
    xxx  x_.xxxxx  xxx_.
    xxx  x_.xxxxx  x__x
    xxx  x_.xxxxx  x_x_x
    xxx  x_.xxxxx  x__x
    xxx  x_.xxxxx  xxx_x
    xxx  x_.xxxxx  x__x
    xxx  x_.xxxxx  xxx_x
    xxx  x_.xxxxx  x__x]
SCL_DEG[12344#567+1+2]
SCL_SEM[2 2 1 1 1 2 2 1 2]

